images/ico-manufacturing-yellow.svg

<svg height="44" width="38" xmlns="http://www.w3.org/2000/svg"><path d="m36.626 43.934h-35.225c-.486 0-.88-.392-.88-.878v-28.122c0-.485.394-.879.88-.879h7.045c.486 0 .881.394.881.879v16.154l12.815-6.395c.272-.136.597-.123.856.039.26.16.419.443.419.747v5.609l12.814-6.395c.273-.136.597-.123.857.039.26.16.418.443.418.747v17.577c0 .486-.393.878-.88.878zm-29.06-28.121h-5.284v3.515h5.284zm28.179 11.088-12.814 6.395c-.274.135-.598.123-.857-.038-.26-.161-.419-.443-.419-.748v-5.609l-12.815 6.395c-.272.136-.597.123-.857-.038-.259-.161-.417-.443-.417-.748v-11.425h-5.284v21.091h33.463zm-23.776 8.246c.486 0 .88.392.88.878v1.758c0 .486-.394.878-.88.878s-.881-.392-.881-.878v-1.758c0-.486.395-.878.881-.878zm5.283 0c.487 0 .881.392.881.878v1.758c0 .486-.394.878-.881.878-.486 0-.88-.392-.88-.878v-1.758c0-.486.394-.878.88-.878zm8.806 0c.487 0 .881.392.881.878v1.758c0 .486-.394.878-.881.878s-.88-.392-.88-.878v-1.758c0-.486.393-.878.88-.878zm5.284 0c.487 0 .881.392.881.878v1.758c0 .486-.394.878-.881.878s-.88-.392-.88-.878v-1.758c0-.486.393-.878.88-.878zm-8.806-22.849c-2.428 0-4.403-1.971-4.403-4.394 0-3.392-2.765-6.152-6.164-6.152s-6.164 2.76-6.164 6.152c0 .484-.395.878-.881.878s-.881-.394-.881-.878c0-4.361 3.556-7.91 7.926-7.91 4.369 0 7.925 3.549 7.925 7.91 0 1.454 1.185 2.637 2.642 2.637s2.642-1.183 2.642-2.637c0-.485.393-.878.88-.878s.881.393.881.878c0 2.423-1.975 4.394-4.403 4.394z" fill="#fcd139" fill-rule="evenodd"/></svg>

<svg 
 xmlns="http://www.w3.org/2000/svg"
 xmlns:xlink="http://www.w3.org/1999/xlink"
 width="38px" height="44px">
<path fill-rule="evenodd"  fill="#fcd139"
 d="M36.626,43.934 L1.401,43.934 C0.915,43.934 0.521,43.542 0.521,43.056 L0.521,14.934 C0.521,14.449 0.915,14.055 1.401,14.055 L8.446,14.055 C8.932,14.055 9.327,14.449 9.327,14.934 L9.327,31.088 L22.142,24.693 C22.414,24.557 22.739,24.570 22.998,24.732 C23.258,24.892 23.417,25.175 23.417,25.479 L23.417,31.088 L36.231,24.693 C36.504,24.557 36.828,24.570 37.088,24.732 C37.348,24.892 37.506,25.175 37.506,25.479 L37.506,43.056 C37.506,43.542 37.113,43.934 36.626,43.934 ZM7.566,15.813 L2.282,15.813 L2.282,19.328 L7.566,19.328 L7.566,15.813 ZM35.745,26.901 L22.931,33.296 C22.657,33.431 22.333,33.419 22.074,33.258 C21.814,33.097 21.655,32.815 21.655,32.510 L21.655,26.901 L8.840,33.296 C8.568,33.432 8.243,33.419 7.983,33.258 C7.724,33.097 7.566,32.815 7.566,32.510 L7.566,21.085 L2.282,21.085 L2.282,42.176 L35.745,42.176 L35.745,26.901 ZM11.969,35.147 C12.455,35.147 12.849,35.539 12.849,36.025 L12.849,37.783 C12.849,38.269 12.455,38.661 11.969,38.661 C11.483,38.661 11.088,38.269 11.088,37.783 L11.088,36.025 C11.088,35.539 11.483,35.147 11.969,35.147 ZM17.252,35.147 C17.739,35.147 18.133,35.539 18.133,36.025 L18.133,37.783 C18.133,38.269 17.739,38.661 17.252,38.661 C16.766,38.661 16.372,38.269 16.372,37.783 L16.372,36.025 C16.372,35.539 16.766,35.147 17.252,35.147 ZM26.058,35.147 C26.545,35.147 26.939,35.539 26.939,36.025 L26.939,37.783 C26.939,38.269 26.545,38.661 26.058,38.661 C25.571,38.661 25.178,38.269 25.178,37.783 L25.178,36.025 C25.178,35.539 25.571,35.147 26.058,35.147 ZM31.342,35.147 C31.829,35.147 32.223,35.539 32.223,36.025 L32.223,37.783 C32.223,38.269 31.829,38.661 31.342,38.661 C30.855,38.661 30.462,38.269 30.462,37.783 L30.462,36.025 C30.462,35.539 30.855,35.147 31.342,35.147 ZM22.536,12.298 C20.108,12.298 18.133,10.327 18.133,7.904 C18.133,4.512 15.368,1.752 11.969,1.752 C8.570,1.752 5.805,4.512 5.805,7.904 C5.805,8.388 5.410,8.782 4.924,8.782 C4.438,8.782 4.043,8.388 4.043,7.904 C4.043,3.543 7.599,-0.006 11.969,-0.006 C16.338,-0.006 19.894,3.543 19.894,7.904 C19.894,9.358 21.079,10.541 22.536,10.541 C23.993,10.541 25.178,9.358 25.178,7.904 C25.178,7.419 25.571,7.026 26.058,7.026 C26.545,7.026 26.939,7.419 26.939,7.904 C26.939,10.327 24.964,12.298 22.536,12.298 Z"/>
</svg>
